X:6
T:Twelve Pins, The
C:Charlie Lennon
R:reel
D:Anthem (De dannan)
M:C|
K:G
dB~B2 dBGB|dA~A2 dAFA|DEFG ABcA|defg afge|
dB~B2 dBgB|dA~A2 fdAF|DEFG ABce|d2cd AGG2:|
~f3e defg|a2fd cAAB|cA (3AAA  DFAB|cedB cAA2|
(3fgf ef defg  |(3agf ga fdAB |(3ccB cB cBAB |(3ccc dc AGG2|
fd (3ddd ad (3ddd|fded cAAB |cedB cdeg|abga fdde|
~f3g ~a3g|~f3d cAAB|~c2cB cBAB|~c2dc AGG2||
